images/label-up.svg

<svg xmlns="http://www.w3.org/2000/svg" width="148" height="148" viewBox="0 0 148 148">
    <g>
        <path fill="#a84fd4" d="M 74 0 C 33.131 0 0 33.131 0 74 C 0 114.869 33.131 148 74 148 C 114.869 148 148 114.869 148 74 C 148 33.131 114.869 0 74 0 z"/>
        <g>
            <path fill="#3240d6" d="M 74 0 C 71.338 -3.7007434e-17 68.709141 0.1400625 66.119141 0.4140625 C 64.691141 1.5070625 63.318719 2.7057188 62.011719 4.0117188 L 0.47851562 65.544922 C 0.16251563 68.318922 0 71.141 0 74 C 0 103.204 16.918328 128.45228 41.486328 140.48828 L 119.98828 61.988281 C 129.37328 52.602281 133.25377 39.800937 131.63477 27.585938 C 118.07077 10.763938 97.293 0 74 0 z"/>
            <path fill="#e24fe6" d="M 107.55859 77.839844 C 102.97184 77.839844 98.386219 79.590344 94.886719 83.089844 L 38.847656 139.13086 C 49.304656 144.78786 61.276 148 74 148 C 76.359 148 78.692141 147.88983 80.994141 147.67383 L 120.23242 108.43359 C 127.23142 101.43559 127.23142 90.088844 120.23242 83.089844 C 116.73292 79.590344 112.14534 77.839844 107.55859 77.839844 z"/>
        </g>
        <g>
            <g>
                <path fill="#fdd7bd" d="M 70.566406 17.595703 C 67.058059 17.573271 63.9745 21.29825 64 25 C 64.128 43.229 47.882 53.316 36 65 C 35.433 65.557 34.083 66 33 66 L 33 114 L 41 114 C 48.738 113.944 49.253 119.058 57 119 L 100 119 C 104.401 119 108 115.4 108 111 C 108 106.6 104.178 104.381 100 103 C 105.164 103 110 101.126 110 95 C 110 91.104 107.17756 87.836672 103.47656 87.138672 C 107.57556 86.061672 112 83.906 112 79 C 112 75.1 109.1728 71.830719 105.4668 71.136719 C 109.5888 70.086719 114 67.915 114 63 C 114 58.6 110.4 55 106 55 L 78 55 C 80.158 45.384 81.282 39.128 79 29 C 77.088437 20.552656 73.662007 17.615496 70.566406 17.595703 z"/>
                <path fill="#f5c3a0" d="M 70.566406 17.595703 C 67.058059 17.573271 63.9745 21.29825 64 25 C 64.09089 37.944019 55.921986 46.779708 46.925781 55 L 78 55 C 80.158 45.384 81.282 39.128 79 29 C 77.088437 20.552656 73.662007 17.615496 70.566406 17.595703 z M 90 55 L 90 119 L 100 119 C 104.401 119 108 115.4 108 111 C 108 106.6 104.178 104.381 100 103 C 105.164 103 110 101.126 110 95 C 110 91.104 107.17756 87.836672 103.47656 87.138672 C 107.57556 86.061672 112 83.906 112 79 C 112 75.1 109.1728 71.830719 105.4668 71.136719 C 109.5888 70.086719 114 67.915 114 63 C 114 58.6 110.4 55 106 55 L 90 55 z"/>
            </g>
            <path fill="#00c0f3" d="M 1.7363281 58 C 0.59932812 63.152 1.4802974e-16 68.506 0 74 C 0 91.387 5.9991094 107.37 16.037109 120 L 30 120 C 32.201 120 34 118.2 34 116 L 34 62 C 34 59.8 32.201 58 30 58 L 1.7363281 58 z"/>
        </g>
    </g>
</svg>

<svg xmlns="http://www.w3.org/2000/svg" width="148" height="148"><path fill="#a84fd4" d="M74 0C33.131 0 0 33.131 0 74s33.131 74 74 74 74-33.131 74-74S114.869 0 74 0z"/><path fill="#3240d6" d="M74 0c-2.662 0-5.29.14-7.88.414a41.46 41.46 0 00-4.108 3.598L.479 65.545A74.693 74.693 0 000 74c0 29.204 16.918 54.452 41.486 66.488l78.502-78.5c9.385-9.386 13.266-22.187 11.647-34.402C118.07 10.764 97.293 0 74 0z"/><path fill="#e24fe6" d="M107.559 77.84c-4.587 0-9.173 1.75-12.672 5.25l-56.04 56.04C49.306 144.789 61.277 148 74 148c2.359 0 4.692-.11 6.994-.326l39.238-39.24c7-6.998 7-18.345 0-25.344-3.5-3.5-8.087-5.25-12.673-5.25z"/><g><path fill="#fdd7bd" d="M70.566 17.596C67.058 17.573 63.974 21.298 64 25c.128 18.229-16.118 28.316-28 40-.567.557-1.917 1-3 1v48h8c7.738-.056 8.253 5.058 16 5h43c4.401 0 8-3.6 8-8s-3.822-6.619-8-8c5.164 0 10-1.874 10-8 0-3.896-2.822-7.163-6.523-7.861C107.576 86.062 112 83.906 112 79c0-3.9-2.827-7.17-6.533-7.863C109.589 70.087 114 67.915 114 63c0-4.4-3.6-8-8-8H78c2.158-9.616 3.282-15.872 1-26-1.912-8.447-5.338-11.385-8.434-11.404z"/><path fill="#f5c3a0" d="M70.566 17.596C67.058 17.573 63.974 21.298 64 25c.09 12.944-8.078 21.78-17.074 30H78c2.158-9.616 3.282-15.872 1-26-1.912-8.447-5.338-11.385-8.434-11.404zM90 55v64h10c4.401 0 8-3.6 8-8s-3.822-6.619-8-8c5.164 0 10-1.874 10-8 0-3.896-2.822-7.163-6.523-7.861C107.576 86.062 112 83.906 112 79c0-3.9-2.827-7.17-6.533-7.863C109.589 70.087 114 67.915 114 63c0-4.4-3.6-8-8-8H90z"/><path fill="#00c0f3" d="M1.736 58A74.178 74.178 0 000 74c0 17.387 6 33.37 16.037 46H30c2.201 0 4-1.8 4-4V62c0-2.2-1.799-4-4-4H1.736z"/></g></svg>
